svgs/solid/restroom-simple.svg

<svg xmlns="http://www.w3.org/2000/svg" viewBox="0 0 576 512"><!-- Font Awesome Pro 6.0.0-alpha2 by @fontawesome - https://fontawesome.com License - https://fontawesome.com/license (Commercial License) --><path d="M264 0H248C239.25 0 232 7.25 232 16V496C232 504.75 239.25 512 248 512H264C272.75 512 280 504.75 280 496V16C280 7.25 272.75 0 264 0ZM448 128C483.375 128 512 99.375 512 64S483.375 0 448 0S384 28.625 384 64S412.625 128 448 128ZM575.375 363.604L527.15 194.813C521.262 174.207 502.427 160 480.996 160H415.004C393.573 160 374.738 174.207 368.85 194.813L320.625 363.604C317.705 373.825 325.379 384 336.01 384H384V480C384 497.673 398.327 512 416 512H480C497.673 512 512 497.673 512 480V384H559.99C570.62 384 578.295 373.825 575.375 363.604ZM96 128C131.375 128 160 99.375 160 64S131.375 0 96 0S32 28.625 32 64S60.625 128 96 128ZM128 160H64C28.654 160 0 188.652 0 224V320C0 337.672 14.326 352 32 352V480C32 497.672 46.326 512 64 512H128C145.674 512 160 497.672 160 480V352C177.674 352 192 337.672 192 320V224C192 188.652 163.346 160 128 160Z"/></svg>

<svg xmlns="http://www.w3.org/2000/svg" viewBox="0 0 576 512"><!--! Font Awesome Pro 6.0.0-alpha3 by @fontawesome - https://fontawesome.com License - https://fontawesome.com/license (Commercial License) --><path d="M264 0h-16c-8.75 0-16 7.25-16 16v480c0 8.75 7.25 16 16 16h16c8.75 0 16-7.25 16-16v-480C280 7.25 272.8 0 264 0zM448 128c35.38 0 64-28.62 64-64s-28.62-64-64-64s-64 28.62-64 64S412.6 128 448 128zM575.4 363.6L527.1 194.8C521.3 174.2 502.4 160 480.1 160h-65.99c-21.43 0-40.27 14.21-46.15 34.81l-48.23 168.8C317.7 373.8 325.4 384 336 384H384v96c0 17.67 14.33 32 32 32h64c17.67 0 32-14.33 32-32v-96h47.99C570.6 384 578.3 373.8 575.4 363.6zM96 128c35.38 0 64-28.62 64-64S131.4 0 96 0S32 28.62 32 64S60.63 128 96 128zM128 160H64C28.65 160 0 188.7 0 224v96c0 17.67 14.33 32 32 32v128c0 17.67 14.33 32 32 32h64c17.67 0 32-14.33 32-32v-128c17.67 0 32-14.33 32-32V224C192 188.7 163.3 160 128 160z"/></svg>
